X: 68
T: Spiritus domini
C: Gaspar van Weerbeke
%%abc-version 2.0
%%abcx-abcm2ps-target-version 5.9.1 (29 Sep 2008)
%%abc-creator hum2abc beta
%%abcx-conversion-date 2022/03/06 13:05:59
%%abc-copyright Copyright 1994, Lindmayr-Brandl, Andrea
%%abc-edited-by Mair-Gruber, Roland
%%humdrum-veritas 4027325734
%%humdrum-veritas-data 3168751825
%%linebreak <none>
%%barnumbers 0
L: 1/4
M: 2/2
N: Derived from Gas0303a-In_honorem_sancti_spiritus-Spiritus_domini.krn
%%staves [1 2 3 4]
V: 1 clef=treble
V: 2 clef=treble-8
V: 3 clef=treble-8
V: 4 clef=bass
K: C
[V:1] z4 | 
[V:2] G4- | 
[V:3] z4 | 
[V:4] G,4 | 
[V:1] z4 | 
[V:2] G2G2 | 
[V:3] z4 | 
[V:4] E,2E,2 | 
[V:1] z4 | 
[V:2] A3B | 
[V:3] z4 | 
[V:4] D,F,2E,/D,/ | 
[V:1] z4 | 
[V:2] c4 | 
[V:3] G4- | 
[V:4] C,3B,,/A,,/ | 
[V:1] z4 | 
[V:2] B3c | 
[V:3] G2G2 | 
[V:4] G,,G,>F,E, | 
[V:1] z4 | 
[V:2] def2 | 
[V:3] A3B | 
[V:4] D,C,D,2 | 
[V:1] G4- | 
[V:2] e4 | 
[V:3] c3B/A/ | 
[V:4] C,4 | 
[V:1] G2G2 | 
[V:2] g2g/f/e/d/ | 
[V:3] B4 | 
[V:4] E,2E,2 | 
[V:1] A3B | 
[V:2] cF2G | 
[V:3] A2d2 | 
[V:4] F,>E,D,C,/B,,/ | 
[V:1] c4 | 
[V:2] AG/F/E2 | 
[V:3] c>BAG/F/ | 
[V:4] A,,4- | 
[V:1] c3B/A/ | 
[V:2] z2A2 | 
[V:3] E2F2 | 
[V:4] A,,4 | 
[V:1] B2A2 | 
[V:2] D>EF3/E/ | 
[V:3] G2A2 | 
[V:4] G,,2D,2 | 
[V:1] GG2F/E/ | 
[V:2] Gde2 | 
[V:3] B2c2 | 
[V:4] G,>F,E,/D,/C, | 
[V:1] F2GA- | 
[V:2] d2BA- | 
[V:3] A2Bc- | 
[V:4] D,2G,F,- | 
[V:1] A/B/c/d/BA- | 
[V:2] A/G/ABd- | 
[V:3] cB/A/GF | 
[V:4] F,/E,/F,G,D, | 
[V:1] AG2^F | 
[V:2] dcd2 | 
[V:3] G2A2 | 
[V:4] E,2D,2 | 
[V:1] G4- | 
[V:2] B2de- | 
[V:3] G4 | 
[V:4] E,2B,,C,- | 
[V:1] G4 | 
[V:2] ed/c/d2 | 
[V:3] c2B2 | 
[V:4] C,B,,/A,,/G,,2 | 
[V:1] z2c2 | 
[V:2] c2A2 | 
[V:3] Ac2B/A/ | 
[V:4] z2F,2 | 
[V:1] B2Ac- | 
[V:2] zBcA- | 
[V:3] G2F2 | 
[V:4] G,2A,2- | 
[V:1] cB/A/G2 | 
[V:2] A/B/c/d/e2 | 
[V:3] F/G/A/B/c2 | 
[V:4] A,G,/F,/E,2 | 
[V:1] F2F/G/A/B/ | 
[V:2] f3e/d/ | 
[V:3] d3c/B/ | 
[V:4] D,4 | 
[V:1] c2d2- | 
[V:2] e2d3/e/ | 
[V:3] A2D2- | 
[V:4] z4 | 
[V:1] dc/B/A2 | 
[V:2] fg2^f | 
[V:3] D4 | 
[V:4] z4 | 
[V:1] B4 | 
[V:2] g4 | 
[V:3] z4 | 
[V:4] G,,4 | 
[V:1] G2E2- | 
[V:2] z2G2 | 
[V:3] z4 | 
[V:4] G,,2C,2- | 
[V:1] EG2F/E/ | 
[V:2] AGc2 | 
[V:3] z4 | 
[V:4] C,2C,2 | 
[V:1] F2D2 | 
[V:2] BA2d- | 
[V:3] z4 | 
[V:4] D,2F,2 | 
[V:1] G2F2 | 
[V:2] dcd2 | 
[V:3] z4 | 
[V:4] E,2D,2 | 
[V:1] DA2G/F/ | 
[V:2] z4 | 
[V:3] z4 | 
[V:4] F,3E,/C,/ | 
[V:1] G/F/E/D/E2 | 
[V:2] z4 | 
[V:3] z4 | 
[V:4] E,D,2C, | 
[V:1] D2z2 | 
[V:2] z4 | 
[V:3] A3G/F/ | 
[V:4] D,2A,,2 | 
[V:1] z4 | 
[V:2] z4 | 
[V:3] G/F/E/D/E2 | 
[V:4] B,,2C,2 | 
[V:1] z4 | 
[V:2] z4 | 
[V:3] D>EFG | 
[V:4] D,3B,, | 
[V:1] z4 | 
[V:2] z4 | 
[V:3] EF2G | 
[V:4] C,D,2E,- | 
[V:1] z4 | 
[V:2] z4 | 
[V:3] EA2G | 
[V:4] E,C,D,E, | 
[V:1] z4 | 
[V:2] z4 | 
[V:3] Ac2B/A/ | 
[V:4] F,2E,2 | 
[V:1] z4 | 
[V:2] z4 | 
[V:3] BA2G | 
[V:4] D,C,_B,,2 | 
[V:1] z4 | 
[V:2] z2c2 | 
[V:3] A4 | 
[V:4] A,,4 | 
[V:1] G3F/E/ | 
[V:2] cB/A<GA/ | 
[V:3] z4 | 
[V:4] z4 | 
[V:1] D>EF/G/A- | 
[V:2] B/c/d2c/B/ | 
[V:3] z4 | 
[V:4] z4 | 
[V:1] AG/F/E2 | 
[V:2] Ad2c | 
[V:3] z4 | 
[V:4] z4 | 
[V:1] DG2^F | 
[V:2] BGA2 | 
[V:3] z2D2 | 
[V:4] z4 | 
[V:1] G>AB/c/d- | 
[V:2] G>FED- | 
[V:3] EG>AB- | 
[V:4] z2zG,,- | 
[V:1] d/c/AG2 | 
[V:2] DC>DE/F/ | 
[V:3] Bc2B/A/ | 
[V:4] G,,A,,>B,,C,/D,/ | 
[V:1] zc2B | 
[V:2] GFfe- | 
[V:3] GA2B | 
[V:4] E,F,2G, | 
[V:1] A/G/F/E/DG- | 
[V:2] ed>cc | 
[V:3] cdG2 | 
[V:4] A,D,E,2 | 
[V:1] GE^F2 | 
[V:2] d2d2 | 
[V:3] A4 | 
[V:4] D,4 | 
[V:1] G4 | 
[V:2] B4 | 
[V:3] G4 | 
[V:4] E,4 | 
[V:1] z4 | 
[V:2] G3A- | 
[V:3] z4 | 
[V:4] E,3F,- | 
[V:1] z4 | 
[V:2] A/G/c2B | 
[V:3] z2F2 | 
[V:4] F,/E,/C,D,2 | 
[V:1] z4 | 
[V:2] c4 | 
[V:3] G2GA- | 
[V:4] C,4- | 
[V:1] z2F2 | 
[V:2] z4 | 
[V:3] A/G/c2B | 
[V:4] C,2D,2 | 
[V:1] EG2A- | 
[V:2] z4 | 
[V:3] c4- | 
[V:4] C,4 | 
[V:1] A/G/c2B | 
[V:2] z4 | 
[V:3] c2d2 | 
[V:4] z4 | 
[V:1] c4 | 
[V:2] z4 | 
[V:3] c2zc | 
[V:4] zC,C,3/D,/ | 
[V:1] z4 | 
[V:2] z4 | 
[V:3] c3B | 
[V:4] E,F,2G, | 
[V:1] z4 | 
[V:2] z4 | 
[V:3] c2A2 | 
[V:4] A,E,F,2 | 
[V:1] z4 | 
[V:2] z4 | 
[V:3] B2A2 | 
[V:4] G,2D,2 | 
[V:1] z4 | 
[V:2] z4 | 
[V:3] G>ABc- | 
[V:4] zE,2D,/C,/ | 
[V:1] z4 | 
[V:2] z4 | 
[V:3] c/B/A/G/F/E/A- | 
[V:4] F,>E,D,/C,/D, | 
[V:1] z2c2 | 
[V:2] z4 | 
[V:3] A/G/G2^F | 
[V:4] C,B,,A,,2 | 
[V:1] B>AG/F/G- | 
[V:2] z2G3/A/ | 
[V:3] G4 | 
[V:4] G,,2z2 | 
[V:1] GF2E/D/ | 
[V:2] B/c/d2e- | 
[V:3] z4 | 
[V:4] z4 | 
[V:1] CG2F- | 
[V:2] ed/c/B/A/d- | 
[V:3] z4 | 
[V:4] z4 | 
[V:1] FED2 | 
[V:2] dc2B | 
[V:3] z4 | 
[V:4] z4 | 
[V:1] Cc2B | 
[V:2] ccd2 | 
[V:3] z4 | 
[V:4] z4 | 
[V:1] c2d2 | 
[V:2] c>AB2 | 
[V:3] z4 | 
[V:4] z4 | 
[V:1] c>AB2 | 
[V:2] A2z2 | 
[V:3] z4 | 
[V:4] z4 | 
[V:1] A2z2 | 
[V:2] z4 | 
[V:3] c2d2 | 
[V:4] z2G,2 | 
[V:1] z4 | 
[V:2] z4 | 
[V:3] c>ABA- | 
[V:4] A,2G,F, | 
[V:1] z4 | 
[V:2] z4 | 
[V:3] AG/F/EA- | 
[V:4] D,2C,D, | 
[V:1] z4 | 
[V:2] z4 | 
[V:3] AGA2 | 
[V:4] _B,,2A,,2 | 
[V:1] z2B2 | 
[V:2] d2e2 | 
[V:3] z4 | 
[V:4] z4 | 
[V:1] c2A2 | 
[V:2] c2z2 | 
[V:3] z4 | 
[V:4] C,2D,2 | 
[V:1] z2G2 | 
[V:2] B2c2 | 
[V:3] z4 | 
[V:4] G,,2z2 | 
[V:1] A2F2 | 
[V:2] A2zc- | 
[V:3] z4 | 
[V:4] z4 | 
[V:1] zc2B/A/ | 
[V:2] cA2G/F/ | 
[V:3] A2F2 | 
[V:4] z4 | 
[V:1] B2Ac- | 
[V:2] Eecf- | 
[V:3] G2A2 | 
[V:4] E,2F,2 | 
[V:1] c/B/A/G/AG- | 
[V:2] f/e/cfd | 
[V:3] A>BcB | 
[V:4] F,3G, | 
[V:1] GF2E | 
[V:2] ec3 | 
[V:3] cAG2 | 
[V:4] E,F,C,2 | 
[V:1] F2z2 | 
[V:2] A3B | 
[V:3] F4- | 
[V:4] D,3C,/B,,/ | 
[V:1] F2A2 | 
[V:2] cdcf- | 
[V:3] F2F2 | 
[V:4] A,,_B,,A,,F,, | 
[V:1] c2cc | 
[V:2] fe/d/c2 | 
[V:3] A2c2 | 
[V:4] F,>G,A,F,- | 
[V:1] AG/F/EG- | 
[V:2] z4 | 
[V:3] c2c2 | 
[V:4] F,E,/D,/C,2 | 
[V:1] GF/E/D2 | 
[V:2] z4 | 
[V:3] B4 | 
[V:4] G,4 | 
[V:1] C2z2 | 
[V:2] z4 | 
[V:3] c2A2 | 
[V:4] C,2D,2 | 
[V:1] z4 | 
[V:2] z4 | 
[V:3] G2BA- | 
[V:4] E,2D,2- | 
[V:1] z4 | 
[V:2] z4 | 
[V:3] AG/F/ED | 
[V:4] D,2C,B,, | 
[V:1] z4 | 
[V:2] z4 | 
[V:3] F>G_BA- | 
[V:4] A,,2G,,D,- | 
[V:1] z4 | 
[V:2] z2c2 | 
[V:3] AG2^F | 
[V:4] D,B,,A,,2 | 
[V:1] z2G2 | 
[V:2] B>cd/e/d- | 
[V:3] G4 | 
[V:4] G,,4 | 
[V:1] A2A2 | 
[V:2] d/e/f/g/f2 | 
[V:3] z4 | 
[V:4] D,2D,2 | 
[V:1] GBAc- | 
[V:2] g2c2 | 
[V:3] G2A2 | 
[V:4] E,2F,2 | 
[V:1] cA2G/F/ | 
[V:2] zcd2 | 
[V:3] A2F/G/A/B/ | 
[V:4] F,2D,2 | 
[V:1] E2Dd- | 
[V:2] G>A B/c/d/e/ | 
[V:3] c2BG | 
[V:4] C,2G,2 | 
[V:1] dcBA- | 
[V:2] f/g/aga | 
[V:3] A2Bc | 
[V:4] zF,G,F, | 
[V:1] AG2^F | 
[V:2] fd3 | 
[V:3] dBA2 | 
[V:4] D,G,D,2 | 
[V:1] G4 |]  
[V:2] d4 |]  
[V:3] G4 |]  
[V:4] G,,4 |]  


